static/img/menus/ico-xapp-filtered.svg

<svg width="16" height="16" viewBox="0 0 16 16" fill="none" xmlns="http://www.w3.org/2000/svg">
<rect width="16" height="16" fill="#333333"/>
<path d="M6.94208 7.60794C7.26884 7.9862 7.44979 8.47799 7.45001 8.98801V12.8898L8.55158 13.467V8.98801L8.55988 8.79789C8.59913 8.35684 8.77353 7.93895 9.0595 7.60794L13.4861 2.48237H2.51366L6.94208 7.60794ZM9.95643 13.7777C9.93492 13.9542 9.88108 14.1251 9.79788 14.2815C9.68695 14.49 9.52716 14.6655 9.33328 14.7911C9.13951 14.9165 8.91837 14.9877 8.69078 14.9986C8.46314 15.0094 8.23646 14.9594 8.0326 14.8528H8.03167L6.77339 14.1937C6.55126 14.0774 6.36468 13.8986 6.23413 13.6774C6.13621 13.5114 6.07254 13.3267 6.047 13.135L6.03409 12.941V8.98897L6.02487 8.88281C6.00629 8.77889 5.96075 8.68139 5.89213 8.60197L1.34479 3.3384C1.17152 3.1374 1.05733 2.88776 1.01663 2.62038C0.975938 2.3531 1.01035 2.07926 1.11526 1.8319L1.20652 1.65336C1.30915 1.48301 1.44589 1.33648 1.60843 1.22583L1.77713 1.12836C1.95184 1.044 2.14276 1.00009 2.33667 1H13.6658L13.8585 1.01544C14.0486 1.04487 14.2309 1.11701 14.3932 1.22776C14.5554 1.33857 14.6927 1.484 14.7951 1.65433L14.8854 1.83287L14.9509 2.02299C15.0026 2.21678 15.0137 2.42109 14.9831 2.62134C14.9423 2.88834 14.8289 3.13766 14.6559 3.3384H14.6549L10.1095 8.60197C10.0179 8.7079 9.96756 8.84612 9.9675 8.98897V13.6001L9.95643 13.7777Z" fill="white"/>
<path d="M4.94544 10.2461C5.12386 9.99015 5.48228 9.92303 5.74625 10.096C6.01015 10.2691 6.07936 10.6167 5.901 10.8727L3.93955 13.688C3.66298 14.085 3.06859 14.1071 2.76162 13.7317L1.1247 11.7303C0.926859 11.4881 0.969012 11.1361 1.2186 10.9441C1.46825 10.7522 1.83122 10.7931 2.02918 11.0352L3.30626 12.598L4.94544 10.2461Z" fill="white"/>
</svg>

<svg xmlns="http://www.w3.org/2000/svg" width="16" height="16" fill="none" viewBox="0 0 16 16"><path fill="#333" d="M0 0h16v16H0z"/><path fill="#fff" d="M6.942 7.608c.327.378.508.87.508 1.38v3.902l1.102.577V8.988l.008-.19c.04-.441.214-.859.5-1.19l4.426-5.126H2.514zm3.014 6.17a1.5 1.5 0 0 1-.158.503c-.111.209-.27.384-.465.51a1.3 1.3 0 0 1-1.3.062h-.001l-1.259-.66a1.36 1.36 0 0 1-.539-.516 1.4 1.4 0 0 1-.187-.542l-.013-.194V8.989l-.01-.106a.6.6 0 0 0-.132-.281L1.345 3.338a1.43 1.43 0 0 1-.328-.718 1.46 1.46 0 0 1 .098-.788l.092-.179c.102-.17.239-.317.401-.427l.17-.098c.174-.084.365-.128.559-.128h11.329l.192.015c.19.03.373.102.535.213.162.11.3.256.402.426l.09.179.066.19c.052.194.063.398.032.598-.04.267-.154.517-.327.717h-.001L10.11 8.602a.6.6 0 0 0-.143.387V13.6z"/><path fill="#fff" d="M4.945 10.246a.59.59 0 0 1 .801-.15c.264.173.333.52.155.777L3.94 13.688a.744.744 0 0 1-1.178.044L1.125 11.73a.55.55 0 0 1 .094-.786.59.59 0 0 1 .81.091l1.277 1.563z"/></svg>
